img/icons/file/media.svg

<svg viewBox="0 0 16 16" xmlns="http://www.w3.org/2000/svg"><path d="m7 8.5c0-0.828 0.672-1.5 1.5-1.5s1.5 0.672 1.5 1.5-0.672 1.5-1.5 1.5-1.5-0.672-1.5-1.5zm1.5-0.5c-0.276 0-0.5 0.224-0.5 0.5 0 0.276 0.224 0.5 0.5 0.5s0.5-0.224 0.5-0.5c0-0.276-0.224-0.5-0.5-0.5z" clip-rule="evenodd" fill="#000" fill-rule="evenodd"/><path d="m5 13.5v-3.5h-2.5c-1.38 0-2.5-1.12-2.5-2.5v-5c0-1.38 1.12-2.5 2.5-2.5h7c1.38 0 2.5 1.12 2.5 2.5v2.5h1.5c1.38 0 2.5 1.12 2.5 2.5v6c0 1.38-1.12 2.5-2.5 2.5h-6c-1.38 0-2.5-1.12-2.5-2.5zm-4-11c0-0.828 0.672-1.5 1.5-1.5h0.5v2h-2v-0.5zm0 1.5h2v2h-2v-2zm0 3h2v2h-0.5c-0.828 0-1.5-0.672-1.5-1.5v-0.5zm3 2v-8h4v4h-0.5c-1.38 0-2.5 1.12-2.5 2.5v1.5h-1zm7-4v-1h-2v1h2zm0-2.5v0.5h-2v-2h0.5c0.828 0 1.5 0.672 1.5 1.5zm-3.5 3.5c-0.828 0-1.5 0.672-1.5 1.5v6c0 0.489 0.234 0.923 0.596 1.2l5.55-5.55c0.195-0.195 0.512-0.195 0.707 0l2.15 2.15v-3.79c0-0.828-0.672-1.5-1.5-1.5h-6zm7.5 6.71-2.5-2.5-4.79 4.79h5.79c0.828 0 1.5-0.672 1.5-1.5v-0.793z" clip-rule="evenodd" fill="#000" fill-rule="evenodd"/></svg>

<svg xmlns="http://www.w3.org/2000/svg" viewBox="0 0 16 16" fill="none">
  <path fill="#000" fill-rule="evenodd"
    d="M7 8.5a1.5 1.5 0 1 1 3 0 1.5 1.5 0 0 1-3 0ZM8.5 8a.5.5 0 1 0 0 1 .5.5 0 0 0 0-1Z" clip-rule="evenodd" />
  <path fill="#000" fill-rule="evenodd"
    d="M5 13.5V10H2.5A2.5 2.5 0 0 1 0 7.5v-5A2.5 2.5 0 0 1 2.5 0h7A2.5 2.5 0 0 1 12 2.5V5h1.5A2.5 2.5 0 0 1 16 7.5v6a2.5 2.5 0 0 1-2.5 2.5h-6A2.5 2.5 0 0 1 5 13.5Zm-4-11A1.5 1.5 0 0 1 2.5 1H3v2H1v-.5ZM1 4h2v2H1V4Zm0 3h2v2h-.5A1.5 1.5 0 0 1 1 7.5V7Zm3 2V1h4v4h-.5A2.5 2.5 0 0 0 5 7.5V9H4Zm7-4V4H9v1h2Zm0-2.5V3H9V1h.5A1.5 1.5 0 0 1 11 2.5ZM7.5 6A1.5 1.5 0 0 0 6 7.5v6c0 .49.234.924.596 1.197l5.55-5.55a.5.5 0 0 1 .708 0L15 11.293V7.5A1.5 1.5 0 0 0 13.5 6h-6Zm7.5 6.707-2.5-2.5L7.707 15H13.5a1.5 1.5 0 0 0 1.5-1.5v-.793Z"
    clip-rule="evenodd" />
</svg>
